X:1
T:Title
%%score { ( 1 4 ) | ( 2 3 ) }
L:1/8
M:6/8
K:Ab
V:1 treble nm="Grand Piano"
V:4 treble 
V:2 bass 
V:3 bass 
V:1
 z3 z2[Q:1/4=81] .[A,CE] | [Ec][Fd][Ec] BAB | [Ec][CA][DF] [CA]2 [EG]/[DF]/ | %3
 [CE][CA][CA] [=DA]>[DB][Dc] | [EB]3- [EB]2 .[A,CE] | [Ec][Fd][Ec] BAB | [Ec][CA][DF] [CA]2 B | %7
 cc>A BB>F |[M:5/8] [CA]-[CA]- [CA]3 |[M:1/8] [_GA] |[M:3/4] [Fd][Fd]- [Fd]/[Fd]/[Fd] [FA]>[=EB] | %11
 [Ec]6 | [EB][EB]- [EB]/[EB]/[=DB] [DB]>[Dc] | [EB]6 | EF G [CA]2 A | %15
[M:15/16] AB/-B/c [Fd]3 [Fd]3/2 |[M:3/4] cc- c/A/B B>G |[M:5/8] [CA]-[CA]- [CA]3 |] %18
V:2
 z3 z z z/ A/ | [A,,A,][A,,A,][A,,A,] [E,G,D][F,A,C][E,G,D] | %2
 [A,,A,][A,,A,][D,A,] [A,,A,]2 [A,,A,] | [A,,A,][A,,A,][A,,A,] [B,,A,]>[B,,G,][B,,F,] | %4
 [E,G,]3- [E,G,]2 z/ A/ | [A,,A,][A,,A,][A,,A,] [E,G,D][F,A,C][E,G,D] | %6
 [A,,A,][A,,A,][D,A,] [A,,A,]2 [E,G,E] | [A,E][A,E]>[A,C] [E,G,D][E,G,D]>[E,B,D] | %8
[M:5/8] [A,,A,]-[A,,A,]- [A,,A,]3 |[M:1/8] [C,A,] | %10
[M:3/4] [D,A,][D,A,]- [D,A,]/[D,A,]/[D,A,] [D,A,]>[D,A,] | [A,,A,]2 A,, A,,2 [A,,A,] | %12
 [B,,G,][B,,G,]- [B,,G,]/[B,,G,]/[B,,A,] [B,,A,]>[B,,A,] | [E,G,]2 E, E,2 [E,G,] | %14
 [E,G,][E,A,=D] [E,B,_D] [A,,A,]2[K:treble] [A,C] | %15
[M:15/16] [A,C][A,DG]/-[A,DG]/[A,E_G][K:bass] [D,D]3 [D,A,]3/2 | %16
[M:3/4] [E,A,E][E,A,E]- [E,A,E]/[E,A,C]/[E,G,D] [E,G,D]>[E,B,D] | %17
[M:5/8] [A,,A,]-[A,,A,]- [A,,A,]3 |] %18
V:3
 z3 z2 A,, | x6 | x6 | x6 | z3 z2 A,, | x6 | x6 | x6 |[M:5/8] x5 |[M:1/8] x |[M:3/4] x6 | x6 | x6 | %13
 x6 | x5[K:treble] x |[M:15/16] x3[K:bass] x9/2 |[M:3/4] x6 |[M:5/8] x5 |] %18
V:4
 x6 | x6 | x6 | x6 | x6 | x6 | x6 | x6 |[M:5/8] x5 |[M:1/8] x |[M:3/4] x6 | z2 A, A,2 [Ec] | x6 | %13
 z2 G, G,2 E | x6 |[M:15/16] x15/2 |[M:3/4] x6 |[M:5/8] x5 |] %18

